lib/brands/icons/ms-excel.svg

<svg xmlns="http://www.w3.org/2000/svg" fill="none" aria-hidden="true" viewBox="0 0 48 48"><g id="ms-excel-Icon"><g id="Group"><rect id="rectangle" width="24" height="28" x="16" y="10" fill="#2FB776" rx="2"/><path id="rectangle_2" fill="url(#paint0_linear_94_16991)" d="M16 31H40V36C40 37.1046 39.1046 38 38 38H18C16.8954 38 16 37.1046 16 36V31Z"/><rect id="rectangle_3" width="12" height="7" x="28" y="24" fill="#229C5B"/><rect id="rectangle_4" width="12" height="7" x="28" y="17" fill="#27AE68"/><path id="rectangle_5" fill="#1D854F" d="M16 12C16 10.8954 16.8954 10 18 10H28V17H16V12Z"/><rect id="rectangle_6" width="12" height="7" x="16" y="17" fill="#197B43"/><rect id="rectangle_7" width="12" height="7" x="16" y="24" fill="#1B5B38"/><path id="rectangle_8" fill="black" fill-opacity="0.3" d="M16 20C16 18.3431 17.3431 17 19 17H25C26.6569 17 28 18.3431 28 20V32C28 33.6569 26.6569 35 25 35H16V20Z"/><rect id="rectangle_9" width="18" height="18" x="8" y="15" fill="url(#paint1_linear_94_16991)" rx="2"/><path id="X" fill="white" d="M21 29L18.1821 23.9L20.8763 19H18.677L17.0137 22.1286L15.378 19H13.11L15.8179 23.9L13 29H15.1993L16.9725 25.6857L18.732 29H21Z"/></g></g><defs><linearGradient id="paint0_linear_94_16991" x1="16" x2="40" y1="34.5" y2="34.5" gradientUnits="userSpaceOnUse"><stop stop-color="#163C27"/><stop offset="1" stop-color="#2A6043"/></linearGradient><linearGradient id="paint1_linear_94_16991" x1="8" x2="26" y1="24" y2="24" gradientUnits="userSpaceOnUse"><stop stop-color="#185A30"/><stop offset="1" stop-color="#176F3D"/></linearGradient></defs></svg>

<svg xmlns="http://www.w3.org/2000/svg" fill="none" aria-hidden="true" viewBox="0 0 48 48"><rect width="24" height="28" x="16" y="10" fill="#2FB776" rx="2"/><path fill="url(#a)" d="M16 31h24v5a2 2 0 0 1-2 2H18a2 2 0 0 1-2-2v-5Z"/><path fill="#229C5B" d="M28 24h12v7H28z"/><path fill="#27AE68" d="M28 17h12v7H28z"/><path fill="#1D854F" d="M16 12a2 2 0 0 1 2-2h10v7H16v-5Z"/><path fill="#197B43" d="M16 17h12v7H16z"/><path fill="#1B5B38" d="M16 24h12v7H16z"/><path fill="#000" fill-opacity=".3" d="M16 20a3 3 0 0 1 3-3h6a3 3 0 0 1 3 3v12a3 3 0 0 1-3 3h-9V20Z"/><rect width="18" height="18" x="8" y="15" fill="url(#b)" rx="2"/><path fill="#fff" d="m21 29-2.818-5.1 2.694-4.9h-2.199l-1.663 3.129L15.378 19H13.11l2.708 4.9L13 29h2.2l1.773-3.314L18.732 29H21Z"/><defs><linearGradient id="a" x1="16" x2="40" y1="34.5" y2="34.5" gradientUnits="userSpaceOnUse"><stop stop-color="#163C27"/><stop offset="1" stop-color="#2A6043"/></linearGradient><linearGradient id="b" x1="8" x2="26" y1="24" y2="24" gradientUnits="userSpaceOnUse"><stop stop-color="#185A30"/><stop offset="1" stop-color="#176F3D"/></linearGradient></defs></svg>
